brandFactory_export/1.Light/Equipo _1Light.svg

<?xml version="1.0" encoding="UTF-8"?>
<svg width="24px" height="24px" viewBox="0 0 24 24" version="1.1" xmlns="http://www.w3.org/2000/svg" xmlns:xlink="http://www.w3.org/1999/xlink">
    <title>1.Light/Equipo _1Light</title>
    <g id="Symbols" stroke="none" stroke-width="1" fill="none" fill-rule="evenodd">
        <g id="1.Light/Equipo-_1Light" fill="#5CB615" fill-rule="nonzero">
            <path d="M11.7445378,5.09411765 C11.4722689,5.0907563 11.2504202,4.87563025 11.2537815,4.61008403 L11.2705882,1.48739496 C11.2739496,1.22184874 11.492437,1.01008403 11.7647059,1.01008403 L11.7680672,1.01008403 C12.0403361,1.01344538 12.2621849,1.22521008 12.2588235,1.49411765 L12.2420168,4.61680672 C12.2386555,4.8789916 12.0168067,5.09411765 11.7445378,5.09411765 Z M8.70252101,5.88739496 L7.31092437,4.51596639 C7.11932773,4.32773109 7.11932773,4.02184874 7.31428571,3.83361345 C7.5092437,3.64537815 7.82184874,3.6487395 8.01344538,3.83697479 L9.40504202,5.20840336 C9.59663866,5.39663866 9.59327731,5.70252101 9.40168067,5.8907563 C9.30420168,5.98151261 9.17983193,6.02857143 9.05546218,6.02857143 C8.92773109,6.02857143 8.8,5.98151261 8.70252101,5.88739496 L8.70252101,5.88739496 Z M14.4504202,6.02857143 C14.3260504,6.02857143 14.1983193,5.98151261 14.1042017,5.88739496 C13.9092437,5.70252101 13.9092437,5.39663866 14.1008403,5.20504202 L15.492437,3.83697479 C15.6840336,3.64537815 15.9966387,3.64537815 16.1915966,3.83361345 C16.3865546,4.01848739 16.3865546,4.32436975 16.194958,4.51596639 L14.8033613,5.88739496 C14.7058824,5.98151261 14.5781513,6.02857143 14.4504202,6.02857143 L14.4504202,6.02857143 Z M3.56638655,8.22352941 C3.27731092,8.49579832 3.13277311,8.9394958 3.13277311,9.54789916 C3.13277311,10.1563025 3.27731092,10.6 3.56302521,10.8689076 C3.84201681,11.1310924 4.29243697,11.2621849 4.90084034,11.2621849 C5.5092437,11.2621849 5.96302521,11.1310924 6.24537815,10.8655462 C6.53445378,10.6 6.6789916,10.1563025 6.6789916,9.54789916 C6.6789916,8.9394958 6.53109244,8.49243697 6.24537815,8.22352941 C5.96302521,7.96134454 5.51260504,7.82352941 4.90420168,7.82352941 C4.29579832,7.82689076 3.84537815,7.96134454 3.56638655,8.22352941 L3.56638655,8.22352941 Z M4.90420168,12.2268908 C4.0302521,12.2268908 3.3512605,12.005042 2.88067227,11.5647059 C2.39327731,11.107563 2.14453782,10.4319328 2.14453782,9.5512605 C2.14453782,8.67058824 2.39327731,7.99159664 2.88067227,7.53109244 C3.3512605,7.0907563 4.0302521,6.86554622 4.90420168,6.86554622 C5.77478992,6.86554622 6.45714286,7.0907563 6.93109244,7.53109244 C7.42184874,7.99159664 7.67058824,8.67058824 7.67058824,9.5512605 C7.67058824,10.4319328 7.42184874,11.107563 6.93109244,11.5680672 C6.45714286,12.005042 5.77478992,12.2268908 4.90420168,12.2268908 L4.90420168,12.2268908 Z M22.5815126,21.702521 L22.6352941,16.3815126 C22.6352941,15.7831933 22.4571429,15.2857143 22.1210084,14.9428571 C21.6504202,14.4655462 20.9277311,14.3647059 20.4067227,14.3647059 L16.1344538,14.3647059 C15.9394958,14.3647059 15.6336134,14.2907563 15.4957983,14.2 C15.3109244,14.0789916 15.1226891,13.8067227 15.1226891,13.8067227 L12.3058824,10.1159664 L12.3058824,13.6117647 L13.8016807,15.5243697 L13.8016807,15.0067227 C13.8016807,14.7411765 14.0235294,14.5260504 14.2957983,14.5260504 C14.5680672,14.5260504 14.789916,14.7411765 14.789916,15.0067227 L14.789916,16.9361345 C14.789916,16.9462185 14.7966387,16.9529412 14.7966387,16.9663866 L14.7966387,17.107563 C14.7966387,17.1882353 14.8,17.2689076 14.8,17.3563025 L14.7932773,17.9378151 L14.7932773,18.805042 L14.7831933,18.805042 L14.7462185,21.702521 L19.610084,21.702521 L19.610084,17.907563 C19.610084,17.6420168 19.8319328,17.4268908 20.1042017,17.4268908 C20.3764706,17.4268908 20.5983193,17.6420168 20.5983193,17.907563 L20.5983193,21.6991597 L22.5815126,21.6991597 L22.5815126,21.702521 Z M11.3142857,13.4571429 L11.3142857,10.1159664 L8.49747899,13.8067227 C8.49747899,13.8067227 8.3092437,14.0789916 8.12436975,14.2 C7.98655462,14.2907563 7.67731092,14.3647059 7.48571429,14.3647059 L3.22016807,14.3647059 C2.69915966,14.3647059 1.97647059,14.4655462 1.50588235,14.9428571 C1.1697479,15.2857143 0.991596639,15.7831933 0.991596639,16.3815126 L1.04537815,21.702521 L3.03193277,21.702521 L3.03193277,17.9109244 C3.03193277,17.6453782 3.25378151,17.4302521 3.52605042,17.4302521 C3.79831933,17.4302521 4.02016807,17.6453782 4.02016807,17.9109244 L4.02016807,21.702521 L8.88067227,21.702521 L8.84705882,18.805042 L8.83697479,18.805042 L8.83697479,17.9344538 L8.8302521,17.3563025 C8.8302521,17.2722689 8.83361345,17.1915966 8.83361345,17.1109244 L8.83361345,16.9697479 C8.83361345,16.9596639 8.83697479,16.9495798 8.83697479,16.9394958 L8.83697479,15.010084 C8.83697479,14.7445378 9.05882353,14.5294118 9.33109244,14.5294118 C9.60336134,14.5294118 9.82521008,14.7445378 9.82521008,15.010084 L9.82521008,15.5277311 L11.3210084,13.6151261 L11.3210084,13.4571429 L11.3142857,13.4571429 Z M22.8302521,14.2773109 C23.3478992,14.8016807 23.6235294,15.5277311 23.6235294,16.3815126 L23.5630252,22.3579832 C23.5630252,22.5260504 23.4252101,22.6638655 23.2504202,22.6638655 L14.0638655,22.6638655 C13.892437,22.6638655 13.7512605,22.5260504 13.7512605,22.3579832 L13.805042,17.9411765 L13.805042,17.1109244 L11.8117647,14.5630252 L9.82184874,17.107563 L9.82184874,17.9344538 L9.87563025,22.3546218 C9.87563025,22.5226891 9.73445378,22.6605042 9.56302521,22.6605042 L0.373109244,22.6605042 C0.201680672,22.6605042 0.0571428571,22.5226891 0.0571428571,22.3546218 L0,16.3781513 C0,15.5243697 0.272268908,14.7983193 0.789915966,14.2739496 C1.35462185,13.702521 2.19495798,13.4 3.21680672,13.4 L6.58487395,13.4 C6.91428571,13.4 7.23361345,13.3764706 7.51260504,13.2386555 C7.68403361,13.1546218 8.02689076,12.8084034 8.02689076,12.8084034 L11.4084034,8.37815126 L11.4117647,8.37142857 C11.4352941,8.34117647 11.4621849,8.31764706 11.4890756,8.29411765 C11.5361345,8.25378151 11.5865546,8.22352941 11.6504202,8.2 C11.6537815,8.2 11.6773109,8.18991597 11.6806723,8.18991597 C11.7142857,8.17983193 11.7647059,8.17983193 11.8184874,8.17983193 C11.8655462,8.17983193 11.9159664,8.18655462 11.9596639,8.2 L11.9731092,8.20336134 C11.9731092,8.20336134 12.0705882,8.24033613 12.107563,8.27394958 C12.1445378,8.30084034 12.1781513,8.33109244 12.205042,8.36470588 L12.2084034,8.37142857 C12.2117647,8.37478992 12.2117647,8.37478992 12.2151261,8.37478992 L12.2184874,8.38151261 L12.2184874,8.38487395 L15.5966387,12.8117647 C15.5966387,12.8117647 15.9428571,13.1579832 16.1109244,13.2420168 C16.389916,13.3798319 16.712605,13.4033613 17.0386555,13.4033613 L20.4033613,13.4033613 C21.4285714,13.4033613 22.2689076,13.7058824 22.8302521,14.2773109 Z M17.3781513,8.2302521 C17.0890756,8.50252101 16.9411765,8.94621849 16.9411765,9.55462185 C16.9411765,10.1596639 17.0890756,10.6067227 17.3747899,10.8722689 C17.6571429,11.1344538 18.107563,11.2655462 18.7193277,11.2655462 C19.3310924,11.2655462 19.7781513,11.1344538 20.0571429,10.8722689 C20.3428571,10.6033613 20.487395,10.1596639 20.487395,9.5512605 C20.487395,8.94285714 20.3428571,8.49579832 20.0537815,8.22689076 C19.7747899,7.96470588 19.3243697,7.8302521 18.7159664,7.8302521 C18.1109244,7.8302521 17.6605042,7.96470588 17.3781513,8.2302521 L17.3781513,8.2302521 Z M16.6957983,11.5680672 C16.205042,11.1109244 15.9529412,10.4319328 15.9529412,9.5512605 C15.9529412,8.67058824 16.2016807,7.99159664 16.6957983,7.53109244 C17.1663866,7.0907563 17.8487395,6.86554622 18.7193277,6.86554622 C19.589916,6.86554622 20.2722689,7.08739496 20.7428571,7.53109244 C21.2302521,7.98823529 21.4789916,8.66722689 21.4789916,9.54789916 C21.4789916,10.4285714 21.2302521,11.107563 20.7428571,11.5647059 C20.2722689,12.005042 19.5932773,12.2269284 18.7193277,12.2269284 C17.8487395,12.2302521 17.1663866,12.0084034 16.6957983,11.5680672 L16.6957983,11.5680672 Z" id="Equipo-_1Light"></path>
        </g>
    </g>
</svg>

<svg width="24" height="24" viewBox="0 0 24 24" xmlns="http://www.w3.org/2000/svg"><path d="M11.745 5.094a.488.488 0 01-.491-.484l.017-3.123a.487.487 0 01.494-.477h.003a.486.486 0 01.49.484l-.016 3.123a.492.492 0 01-.497.477zm-3.042.793L7.31 4.516a.474.474 0 01.003-.682.503.503 0 01.7.003l1.391 1.371a.477.477 0 01-.003.683.509.509 0 01-.7-.004zm5.747.142a.491.491 0 01-.346-.142.474.474 0 01-.003-.682l1.391-1.368a.5.5 0 01.7-.003c.195.184.195.49.003.682l-1.392 1.371a.507.507 0 01-.353.142zM3.566 8.224c-.289.272-.433.715-.433 1.324 0 .608.144 1.052.43 1.32.279.263.73.394 1.338.394.608 0 1.062-.13 1.344-.396.29-.266.434-.71.434-1.318 0-.609-.148-1.056-.434-1.324-.282-.263-.732-.4-1.34-.4-.61.003-1.06.137-1.339.4zm1.338 4.003c-.874 0-1.553-.222-2.023-.662-.488-.457-.736-1.133-.736-2.014 0-.88.248-1.56.736-2.02.47-.44 1.15-.665 2.023-.665.87 0 1.553.225 2.027.665.49.46.74 1.14.74 2.02 0 .88-.25 1.557-.74 2.017-.474.437-1.156.659-2.027.659zm17.678 9.476l.053-5.321c0-.599-.178-1.096-.514-1.44-.47-.476-1.193-.577-1.714-.577h-4.273c-.195 0-.5-.074-.638-.165-.185-.121-.373-.393-.373-.393l-2.817-3.691v3.496l1.496 1.912v-.517c0-.266.222-.48.494-.48s.494.214.494.48v1.93c0 .01.007.016.007.03v.14c0 .081.003.162.003.25l-.007.58v.868h-.01l-.037 2.898h4.864v-3.795c0-.266.222-.481.494-.481s.494.215.494.48V21.7h1.984v.004zm-11.268-8.246v-3.341l-2.817 3.69s-.188.273-.373.394c-.137.09-.447.165-.638.165H3.22c-.52 0-1.244.1-1.714.578-.336.343-.514.84-.514 1.439l.053 5.32h1.987v-3.791c0-.266.222-.48.494-.48s.494.214.494.48v3.792h4.86l-.033-2.898h-.01v-.87l-.007-.579c0-.084.004-.164.004-.245v-.141l.003-.03v-1.93c0-.265.222-.48.494-.48s.494.215.494.48v.518l1.496-1.913v-.158h-.007zm11.516.82c.518.525.794 1.25.794 2.105l-.061 5.976a.308.308 0 01-.313.306h-9.186a.31.31 0 01-.313-.306l.054-4.417v-.83l-1.993-2.548-1.99 2.545v.826l.054 4.42a.31.31 0 01-.313.307H.373a.314.314 0 01-.316-.306L0 16.378c0-.854.272-1.58.79-2.104.565-.571 1.405-.874 2.427-.874h3.368c.33 0 .649-.024.928-.161.171-.084.514-.43.514-.43l3.381-4.43.004-.008c.023-.03.05-.053.077-.077a.51.51 0 01.161-.094c.004 0 .027-.01.03-.01.034-.01.085-.01.138-.01.048 0 .098.007.142.02l.013.003s.098.037.135.07c.037.028.07.058.097.092l.003.006c.004.004.004.004.007.004l.003.007v.003l3.379 4.427s.346.346.514.43c.279.138.602.161.928.161h3.364c1.026 0 1.866.303 2.427.874zM17.378 8.23c-.289.273-.437.716-.437 1.325 0 .605.148 1.052.434 1.317.282.262.733.394 1.344.394.612 0 1.06-.132 1.338-.394.286-.269.43-.712.43-1.32 0-.61-.144-1.056-.433-1.325-.28-.262-.73-.397-1.338-.397-.605 0-1.055.135-1.338.4zm-.682 3.338c-.491-.457-.743-1.136-.743-2.017 0-.88.249-1.56.743-2.02.47-.44 1.153-.665 2.023-.665.87 0 1.553.221 2.024.665.487.457.736 1.136.736 2.017 0 .88-.249 1.56-.736 2.017-.47.44-1.15.662-2.024.662-.87.003-1.553-.219-2.023-.659z" fill="#5CB615" fill-rule="nonzero"/></svg>
